X:53
% %footer 06/02/11 For use only by Roaring Jelly members
T:La Gueussinette (Quebequois \2512002 Stephen Jones)
C:W-53
K:Bm treble 
M:3/4
R:Waltz
L:1/8
C: W-51
K:Bm
|:"Bm"B2 F2 B/c/d|B2 F4|BA Bc de|f6|"Em"g3 f eg|"Bm"f2 d2 B2|
"C#m7(b5)"cB cd ed|"F#"c4 dc|"Bm"B2 F2 B/c/d|B2 F3 F|BA Bc de|fd B3 f|
"Em"gf ed e/f/g|"Bm"fd BF Bd|"F#"cB ce dc|"Bm"B6:|
|:"Em"g3 f eg|"Bm"f2 d2 B2|"G"BA Bc "A7"de|"D"f6|"Em"g3 f e/f/g|"Bm"f2 d2 B2|
"C#m7(b5)"cB cd ed|"F#"c3 d ef|"Em"g3 f eg|"Bm"fd B3 F|"G"BA Bc "A"de|
"D"f6|"Em"ga bg eg|"Bm"fd BF B/c/d|"F#"cBce dc|"Bm"B6:|]

#include "RightHeader.h"
% %scale .79
$SmallLMargin
$SmallRMargin
